X: 6118
T: Captain Horne
R: strathspey
M: 4/4
K: Dmajor
f>AA2 B<Gg2|f>A (3AAA B<dd2|f>AA2 B<Gg2|f<ae>d B<dd2:|
f2(3fed f2f<a|f2(3fed e>fa2|f2(3fed e>fg>e|a>fe>d B<dd2:|

